X:1
T:Title
%%score { ( 1 3 ) | ( 2 4 ) }
L:1/8
M:6/8
K:Ab
V:1 treble nm="Grand Piano"
V:3 treble 
V:2 bass 
V:4 bass 
V:1
 z3 z2[Q:1/4=100] [CE] | [CE][DF][B,G] [CA][Fd]>[Ec] | B3 F3 | G3 cBG | [_CF]3 [=CE]2 [CE] | %5
 [CE][DF][B,G] [CA][Fd]>[Ec] | B3 F3 | G3 Ec>B | [CA]6 | [Ec]3 [Ec][DB][CA] | GGA B3 | %11
 [Gd]2 [GB] [Ge]2 [EGB] | c6 | [CE][CA][Ec] [CAe]3 | .[EAc]2 [GB] ABc | %15
[M:17/16] [Fd]/-[Fd]/-[Fd]/-[Fd]/-[Fd]/-[Fd]-<[Fd]F/-F/-F-<FA |[M:3/4] E[EA] [Fd] [Ec]2 [DB] | %17
[M:5/8] [CA]-[CA]- [CA]3 |] %18
V:2
 z3 z2 [A,,A,] | [A,,A,][A,,A,][A,,A,] [A,,A,][A,,A,]>[A,,A,] | [D,F,D]3 [D,A,D]3 | %3
 [E,D]3 [E,G,E][E,G,D][E,B,D] | [A,,A,]3 [A,,A,]2 [A,,A,] | %5
 [A,,A,][A,,A,][A,,A,] [A,,A,][A,,A,]>[A,,A,] | [D,F,D]3 [D,A,D]3 | [E,D]3 [E,G,D][E,G,E]>[E,G,D] | %8
 [A,,A,]6 | [A,,A,]3 [A,,A,][A,,A,][A,,A,] | [E,B,D][E,B,D][E,A,C] [E,G,D]3 | %11
 [E,B,]2 [E,D] [E,B,]2 E, | z2 E E2 [A,,A,] | [A,,A,][A,,A,][A,,A,] [A,,A,]3 | %14
 .[A,,A,]2 [E,D][K:treble] [A,C_G][A,CG][A,G] | %15
[M:17/16][K:bass] [D,A,]/-[D,A,]/-[D,A,]/-[D,A,]/-[D,A,]/-[D,A,]-<[D,A,][D,A,D]/-[D,A,D]/-[D,A,D]-<[D,A,D][=D,F,_C] | %16
[M:3/4] .[E,C]2 z2 z2 |[M:5/8] [A,,A,]-[A,,A,]- [A,,A,]3 |] %18
V:3
 x6 | x6 | x6 | x6 | x6 | x6 | x6 | x6 | x6 | x6 | x6 | x6 | [EA]2 A A2 [CE] | x6 | x6 | %15
[M:17/16] x17/2 |[M:3/4] x6 |[M:5/8] x5 |] %18
V:4
 x6 | x6 | x6 | x6 | x6 | x6 | x6 | x6 | x6 | x6 | x6 | x6 | A,,6 | x6 | x3[K:treble] x3 | %15
[M:17/16][K:bass] x17/2 |[M:3/4] A,-[C,A,] [D,A,] [E,G,]2 [E,G,] |[M:5/8] x5 |] %18

